X:03081
T: Rachael Rae
C: John Lowe (about 1815)
R: reel
B: RSCDS 3-8
Z: 1997 by John Chambers <jc:trillian.mit.edu>
M: C|
L: 1/8
%--------------------
K: D
|: "D"D2FA d2Ac | d2fd "A7"e2cA | "D"d2Ad "G"BAGF | "A7"E2AE "D"FDD2 :|
|: "D"d2df a2fd | "Em"g2bg "A7"e2cA | "D"d2df a2fd | "A7"egfe "D"fdd2 |
|  "D"defg a2fd | "Em"g2bg "A7"e2cA | "D"d2Ad "G"BAGF | "A7"E2AE "D"FDD2 :|
